X:19040
T:Xiraldilla (CT 272)
R:Xiraldilla
C:Tradicional
S:Música Tradicional Asturiana, (C) Tello & Tito. Asturies, 2001.
S:http://pagina.de/MusTradAst <telloytito@asturies.org>
N:Xiraldilla, transcrita en Llamo, ayuntamiento de Riosa.
O:Llamo (Riosa)
A:Asturies
Z:Cancioneru de Torner 272
M:2/4
L:1/8
Q:1/4=160
W:El lunes hay que barrer,
W:el martes hay que fregar,
W:el miércoles al molino
W:para el jueves amasar,
W:el viernes hacer colada
W:para el sábado lavar,
W:el domingo, como es fiesta,
W:no se puede trabajar.
W:
W:¡Que cuándo vas a hilar,
W:hilar, María,
W:que cuando vas a hilar,
W:hilar, hilar;
W:que cuándo vas a hilar,
W:hilar María!
W:Mañanita de San Juan.
K:Gm
|d2 de|d2 cB|c4|d2 de|d2 cB|c2 z2|
B2 Ac|B2 AG|^F2 G2|B2 Ac|B2 A^F|G2 z2|
d2 de|d2 cB|c2 c2|d2 de|d2 cB|c2 z2|
B2 Ac|B2 AG|^F2 G2|B2 Ac|B2 A^F|G2 z G|
BB AB|cB AG|^F2 GG|BB AB|cB A^F|G2 z G|
BB AB|cB AG|^F2 G2|B2 Ac|B2 A^F|G4||


